tools/download-figma-icons/icons/outlined-medium/water-drops.svg

<svg width="24" height="24" viewBox="0 0 24 24" fill="none" xmlns="http://www.w3.org/2000/svg">
<path fill-rule="evenodd" clip-rule="evenodd" d="M17.3562 1.75564C15.8435 3.92389 14.8835 5.77264 14.8835 6.53389C14.8835 7.89739 15.9927 9.00739 17.3562 9.00739C18.7197 9.00739 19.829 7.89739 19.829 6.53389C19.829 5.77264 18.8682 3.92389 17.3562 1.75564ZM17.3562 10.5074C15.1655 10.5074 13.3835 8.72464 13.3835 6.53389C13.3835 5.03689 15.0342 2.41639 16.4195 0.482138C16.8492 -0.120862 17.8617 -0.122362 18.2937 0.482888C19.6782 2.41714 21.329 5.03764 21.329 6.53389C21.329 8.72464 19.547 10.5074 17.3562 10.5074ZM8.8905 7.50222C6.417 10.9882 3.75 15.4057 3.75 17.3482C3.75 20.1892 6.0615 22.5 8.90175 22.5C11.7427 22.5 14.0535 20.1892 14.0535 17.3482C14.0535 15.4057 11.3865 10.9882 8.8905 7.50222ZM8.90175 24C5.23425 24 2.25 21.0165 2.25 17.3482C2.25 14.637 5.66025 9.46872 7.6935 6.62922C7.971 6.23997 8.42325 6.00747 8.90175 6.00747C9.38025 6.00747 9.83175 6.23997 10.11 6.62997C12.1425 9.46872 15.5535 14.637 15.5535 17.3482C15.5535 21.0165 12.5693 24 8.90175 24ZM5.25007 17.3483C5.25007 19.3613 6.88807 21 8.90182 21C9.31582 21 9.65182 20.6648 9.65182 20.25C9.65182 19.8353 9.31582 19.5 8.90182 19.5C7.71532 19.5 6.75007 18.5348 6.75007 17.3483C6.75007 16.9335 6.41407 16.5983 6.00007 16.5983C5.58607 16.5983 5.25007 16.9335 5.25007 17.3483Z" fill="black"/>
</svg>

<svg width="24" height="24" viewBox="0 0 24 24" fill="none" xmlns="http://www.w3.org/2000/svg"><path fill-rule="evenodd" clip-rule="evenodd" d="M17.356 1.756c-1.513 2.168-2.473 4.017-2.473 4.778a2.476 2.476 0 0 0 2.473 2.473 2.476 2.476 0 0 0 2.473-2.473c0-.761-.96-2.61-2.473-4.778Zm0 8.751a3.978 3.978 0 0 1-3.973-3.973c0-1.497 1.651-4.118 3.037-6.052.43-.603 1.442-.604 1.874 0 1.384 1.935 3.035 4.556 3.035 6.052a3.978 3.978 0 0 1-3.973 3.973ZM8.89 7.502c-2.473 3.486-5.14 7.904-5.14 9.846A5.158 5.158 0 0 0 8.902 22.5c2.84 0 5.152-2.31 5.152-5.152 0-1.942-2.668-6.36-5.164-9.846ZM8.902 24a6.66 6.66 0 0 1-6.652-6.652c0-2.711 3.41-7.88 5.444-10.719a1.487 1.487 0 0 1 2.416.001c2.033 2.839 5.444 8.007 5.444 10.718A6.66 6.66 0 0 1 8.901 24ZM5.25 17.348A3.656 3.656 0 0 0 8.902 21a.75.75 0 1 0 0-1.5 2.154 2.154 0 0 1-2.152-2.152.75.75 0 1 0-1.5 0Z" fill="currentColor"/></svg>
